build/img/sprite.svg

<?xml version="1.0" encoding="UTF-8"?><!DOCTYPE svg PUBLIC "-//W3C//DTD SVG 1.1//EN" "http://www.w3.org/Graphics/SVG/1.1/DTD/svg11.dtd"><svg xmlns="http://www.w3.org/2000/svg" xmlns:xlink="http://www.w3.org/1999/xlink"><symbol id="icon-1" viewBox="0 0 79 101">
<path d="M0.95 101H75.8L78.35 79.4H57.5L67.25 0.199992H37.7L8.75 9.94999L9.65 28.7L29.75 27.05L23.3 79.4H3.5L0.95 101Z" fill="#00A9CF"/>
</symbol><symbol id="icon-2" viewBox="0 0 90 102">
<path d="M49.85 79.8C69.35 66 89.45 49.05 89.45 29.55C89.45 10.05 75.65 0.149997 52.85 0.149997C39.5 0.149997 25.4 4.49999 11.9 12.6L20.3 34.05C30.2 28.95 39.5 26.55 44.9 26.55C52.4 26.55 54.5 30.15 54.5 34.05C54.5 47.55 28.25 64.95 3.05 82.65L0.8 102H85.25L88.85 72.6H65.15L64.1 80.55H49.85V79.8Z" fill="#00A9CF"/>
</symbol><symbol id="icon-3" viewBox="0 0 87 105">
<path d="M70.7 46.15C81.95 41.35 86.75 31.6 86.75 24.55C86.75 12.25 78.2 0.699994 54.5 0.699994C41 0.699994 30.2 2.65 11.9 10.45L19.25 32.2C30.8 27.1 38.45 25.3 45.05 25.3C50.15 25.3 52.25 27.85 52.25 30.4C52.25 37 43.55 40 26.75 43.15L30.05 62.2C36.5 61.3 39.5 61.15 41.15 61.15C46.85 61.15 51.8 63.1 51.8 68.35C51.8 77.2 43.25 79.45 34.7 79.45C27.65 79.45 21.05 77.65 10.4 74.2L0.5 96.4C11.6 103.45 31.1 104.65 37.1 104.65C68.75 104.65 86.3 88.3 86.3 67.75C86.3 60.1 82.25 50.95 70.55 47.05L70.7 46.15Z" fill="#00A9CF"/>
</symbol><symbol id="icon-4" viewBox="0 0 93 101">
<path d="M44.85 0.199992L2.85 54.05L0.6 72.35H42.15L41.25 79.55H33.9L31.35 101H80.55L83.1 79.55H74.85L75.75 72.35H90L92.7 50.45H78.45L84.6 0.199992H44.85ZM47.7 29.45L45 50.45H31.65L39.75 39.5L46.95 29.45H47.7Z" fill="#00A9CF"/>
</symbol><symbol id="icon-5" viewBox="0 0 88 103">
<path d="M38.95 55.7C45.1 55.7 50.8 58.1 50.8 64.4C50.8 73.25 43.3 76.25 34.6 76.25C27.7 76.25 20.95 74.9 10.15 71L0.85 93.95C12.1 101.3 31.6 102.5 37.6 102.5C64.9 102.5 85.3 87.35 85.3 62.6C85.3 43.7 73.15 32.9 49.15 32.9C47.2 32.9 44.5 33.05 41.8 33.5L44.35 21.95H60.25L59.35 29.15H83.95L87.55 0.199992H20.65L9.55 51.8L23.95 58.7C29.2 56.75 35.35 55.7 38.95 55.7Z" fill="#00A9CF"/>
</symbol><symbol id="icon-mail" viewBox="0 0 18 14">
<path opacity="0.3" d="M15.8636 0H2.13645C0.958418 0 0 0.942524 0 2.10101V11.899C0 13.0575 0.958418 14 2.13645 14H15.8636C17.0416 14 18 13.0575 18 11.899V2.10101C18 0.942524 17.0416 0 15.8636 0ZM15.8636 12.1451H2.13645C1.96328 12.1451 1.81141 12.0301 1.81141 11.899V3.39664L8.01984 8.76409C8.14712 8.87417 8.30898 8.93476 8.47564 8.93476L9.52417 8.93481C9.69074 8.93481 9.85269 8.87417 9.98002 8.76409L16.1887 3.39645V11.8991C16.1886 12.0301 16.0367 12.1451 15.8636 12.1451ZM9.00002 7.09303L2.96155 1.85485H15.0385L9.00002 7.09303Z" fill="black"/>
</symbol><symbol id="icon-phone" viewBox="0 0 17 17">
<path opacity="0.3" d="M3.43196 11.3005C5.10872 13.3048 7.12716 14.8829 9.43093 15.9996C10.3081 16.4153 11.4811 16.9084 12.788 16.993C12.869 16.9965 12.9465 17 13.0275 17C13.9046 17 14.6091 16.6971 15.1833 16.0736C15.1868 16.07 15.1939 16.063 15.1974 16.0559C15.4017 15.8094 15.6342 15.5874 15.8773 15.3514C16.0428 15.1929 16.2119 15.0274 16.3739 14.8583C17.1243 14.0763 17.1243 13.0829 16.3669 12.3255L14.2498 10.2085C13.8905 9.83506 13.4608 9.6378 13.0099 9.6378C12.559 9.6378 12.1257 9.83506 11.7558 10.2049L10.4947 11.466C10.3785 11.3991 10.2587 11.3392 10.146 11.2828C10.0051 11.2124 9.87477 11.1455 9.75853 11.0715C8.61017 10.3423 7.56748 9.39121 6.57059 8.16888C6.06686 7.53129 5.72869 6.99586 5.49268 6.44986C5.8238 6.15044 6.13379 5.83693 6.43321 5.53046C6.53889 5.42126 6.64809 5.31206 6.75729 5.20286C7.13772 4.82242 7.34204 4.3821 7.34204 3.93473C7.34204 3.48736 7.14125 3.04704 6.75729 2.6666L5.70755 1.61687C5.58426 1.49358 5.46802 1.37381 5.34825 1.25052C5.11576 1.01098 4.8727 0.764401 4.63317 0.542478C4.27034 0.186697 3.84411 0 3.39322 0C2.94585 0 2.51609 0.186697 2.13917 0.546001L0.821728 1.86345C0.342656 2.34252 0.0714166 2.92375 0.0150552 3.59656C-0.0518739 4.43846 0.10312 5.3332 0.504695 6.41463C1.12115 8.08786 2.05111 9.64132 3.43196 11.3005ZM0.874566 3.67053C0.916837 3.20203 1.09649 2.81102 1.43466 2.47286L2.74506 1.16245C2.94937 0.965189 3.17482 0.863034 3.39322 0.863034C3.60809 0.863034 3.82649 0.965189 4.02728 1.1695C4.26329 1.3879 4.48522 1.61687 4.72475 1.85993C4.84452 1.98322 4.96781 2.10651 5.0911 2.23332L6.14083 3.28305C6.35923 3.50145 6.47196 3.72337 6.47196 3.94177C6.47196 4.16017 6.35923 4.3821 6.14083 4.6005C6.03163 4.7097 5.92243 4.82242 5.81323 4.93162C5.48563 5.26274 5.17917 5.57625 4.841 5.87567C4.83395 5.88272 4.83043 5.88624 4.82339 5.89329C4.53101 6.18566 4.57681 6.46395 4.64726 6.6753C4.65078 6.68587 4.6543 6.69291 4.65782 6.70348C4.92906 7.35516 5.30598 7.97513 5.89425 8.71488C6.95103 10.0182 8.06417 11.0292 9.29002 11.8077C9.4415 11.9063 9.60353 11.9838 9.75501 12.0613C9.89591 12.1318 10.0262 12.1987 10.1425 12.2727C10.1566 12.2797 10.1671 12.2868 10.1812 12.2938C10.2975 12.3537 10.4102 12.3819 10.5229 12.3819C10.8047 12.3819 10.9879 12.2022 11.0478 12.1424L12.3652 10.8249C12.5696 10.6206 12.7915 10.5114 13.0099 10.5114C13.2776 10.5114 13.496 10.677 13.6334 10.8249L15.7575 12.9455C16.1802 13.3682 16.1767 13.8262 15.7469 14.2735C15.599 14.432 15.444 14.5835 15.2784 14.742C15.0318 14.9816 14.7747 15.2281 14.5422 15.5064C14.1371 15.9432 13.6545 16.1475 13.031 16.1475C12.9711 16.1475 12.9077 16.144 12.8478 16.1405C11.6924 16.0665 10.618 15.6156 9.81137 15.2317C7.62032 14.1714 5.69699 12.6672 4.10126 10.758C2.78733 9.17634 1.90316 7.7039 1.31841 6.12578C0.955586 5.15707 0.818205 4.37857 0.874566 3.67053Z" fill="black"/>
</symbol></svg>

<?xml version="1.0" encoding="UTF-8"?><!DOCTYPE svg PUBLIC "-//W3C//DTD SVG 1.1//EN" "http://www.w3.org/Graphics/SVG/1.1/DTD/svg11.dtd"><svg xmlns="http://www.w3.org/2000/svg" xmlns:xlink="http://www.w3.org/1999/xlink"><symbol id="icon-1-small" viewBox="0 0 20 26">
<path d="M0 26H19.3411L20 20.4286H14.6124L17.1318 0H9.49612L2.0155 2.51488L2.24806 7.35119L7.44186 6.9256L5.77519 20.4286H0.658915L0 26Z" fill="#00A9CF"/>
</symbol><symbol id="icon-1"><path d="M.95 101H75.8l2.55-21.6H57.5L67.25.2H37.7L8.75 9.95l.9 18.75 20.1-1.65L23.3 79.4H3.5L.95 101z" fill="#00A9CF"/></symbol><symbol id="icon-2-small" viewBox="0 0 22 26">
<path d="M12.1726 20.3328C17.0118 16.81 22 12.4831 22 7.50516C22 2.52725 18.5753 0 12.9171 0C9.60406 0 6.10491 1.11046 2.75465 3.1782L4.83926 8.6539C7.29611 7.35199 9.60406 6.73932 10.9442 6.73932C12.8054 6.73932 13.3266 7.65832 13.3266 8.6539C13.3266 12.1001 6.81218 16.542 0.558376 21.0604L0 26H20.9577L21.8511 18.4948H15.9695L15.709 20.5243H12.1726V20.3328Z" fill="#00A9CF"/>
</symbol><symbol id="icon-2"><path d="M49.85 79.8c19.5-13.8 39.6-30.75 39.6-50.25S75.65.15 52.85.15C39.5.15 25.4 4.5 11.9 12.6l8.4 21.45c9.9-5.1 19.2-7.5 24.6-7.5 7.5 0 9.6 3.6 9.6 7.5 0 13.5-26.25 30.9-51.45 48.6L.8 102h84.45l3.6-29.4h-23.7l-1.05 7.95H49.85v-.75z" fill="#00A9CF"/></symbol><symbol id="icon-3-small" viewBox="0 0 22 26">
<path d="M17.9061 11.368C20.7757 10.1674 22 7.72872 22 5.96537C22 2.88889 19.8191 0 13.7739 0C10.3304 0 7.57565 0.487735 2.90783 2.43867L4.78261 7.87879C7.7287 6.60317 9.68 6.15296 11.3635 6.15296C12.6643 6.15296 13.2 6.79076 13.2 7.42857C13.2 9.07937 10.9809 9.82973 6.69565 10.6176L7.53739 15.3824C9.18261 15.1573 9.94783 15.1198 10.3687 15.1198C11.8226 15.1198 13.0852 15.6075 13.0852 16.9206C13.0852 19.1342 10.9043 19.697 8.72348 19.697C6.92522 19.697 5.24174 19.2468 2.52522 18.3838L0 23.9365C2.8313 25.6999 7.80522 26 9.33565 26C17.4087 26 21.8852 21.9105 21.8852 16.7706C21.8852 14.8571 20.8522 12.5685 17.8678 11.5931L17.9061 11.368Z" fill="#00A9CF"/>
</symbol><symbol id="icon-3"><path d="M70.7 46.15c11.25-4.8 16.05-14.55 16.05-21.6C86.75 12.25 78.2.7 54.5.7 41 .7 30.2 2.65 11.9 10.45l7.35 21.75c11.55-5.1 19.2-6.9 25.8-6.9 5.1 0 7.2 2.55 7.2 5.1 0 6.6-8.7 9.6-25.5 12.75l3.3 19.05c6.45-.9 9.45-1.05 11.1-1.05 5.7 0 10.65 1.95 10.65 7.2 0 8.85-8.55 11.1-17.1 11.1-7.05 0-13.65-1.8-24.3-5.25L.5 96.4c11.1 7.05 30.6 8.25 36.6 8.25 31.65 0 49.2-16.35 49.2-36.9 0-7.65-4.05-16.8-15.75-20.7l.15-.9z" fill="#00A9CF"/></symbol><symbol id="icon-4-small" viewBox="0 0 23 26">
<path d="M11.0505 0L0.561889 13.8899L0 18.6101H10.3762L10.1515 20.4673H8.31596L7.67915 26H19.9658L20.6026 20.4673H18.5423L18.7671 18.6101H22.3257L23 12.9613H19.4414L20.9772 0H11.0505ZM11.7622 7.54464L11.0879 12.9613H7.75407L9.77687 10.1369L11.5749 7.54464H11.7622Z" fill="#00A9CF"/>
</symbol><symbol id="icon-4"><path d="M44.85.2l-42 53.85L.6 72.35h41.55l-.9 7.2H33.9L31.35 101h49.2l2.55-21.45h-8.25l.9-7.2H90l2.7-21.9H78.45L84.6.2H44.85zm2.85 29.25l-2.7 21H31.65l8.1-10.95 7.2-10.05h.75z" fill="#00A9CF"/></symbol><symbol id="icon-5-small" viewBox="0 0 22 26">
<path d="M9.66782 14.1056C11.2284 14.1056 12.6747 14.7155 12.6747 16.3167C12.6747 18.566 10.7716 19.3284 8.56401 19.3284C6.81315 19.3284 5.10035 18.9853 2.35986 17.9941L0 23.827C2.85467 25.695 7.80277 26 9.32526 26C16.2526 26 21.4291 22.1496 21.4291 15.8592C21.4291 11.0557 18.346 8.31085 12.2561 8.31085C11.7612 8.31085 11.0761 8.34898 10.391 8.46334L11.0381 5.52786H15.0727L14.8443 7.35777H21.0865L22 0H5.02422L2.20761 13.1144L5.86159 14.868C7.19377 14.3724 8.75433 14.1056 9.66782 14.1056Z" fill="#00A9CF"/>
</symbol><symbol id="icon-5"><path d="M38.95 55.7c6.15 0 11.85 2.4 11.85 8.7 0 8.85-7.5 11.85-16.2 11.85-6.9 0-13.65-1.35-24.45-5.25L.85 93.95c11.25 7.35 30.75 8.55 36.75 8.55 27.3 0 47.7-15.15 47.7-39.9 0-18.9-12.15-29.7-36.15-29.7-1.95 0-4.65.15-7.35.6l2.55-11.55h15.9l-.9 7.2h24.6L87.55.2h-66.9L9.55 51.8l14.4 6.9c5.25-1.95 11.4-3 15-3z" fill="#00A9CF"/></symbol><symbol id="icon-arrow"><path fill-rule="evenodd" clip-rule="evenodd" d="M3.934 4L0 0h1.831L6 4 1.831 8H0l3.934-4z" fill="#00A9CF"/></symbol><symbol id="icon-mail"><path opacity=".3" d="M15.864 0H2.136C.958 0 0 .943 0 2.101v9.798C0 13.058.958 14 2.136 14h13.728C17.042 14 18 13.057 18 11.899V2.101C18 .943 17.042 0 15.864 0zm0 12.145H2.136c-.173 0-.325-.115-.325-.246V3.397L8.02 8.764c.127.11.289.17.456.17h1.048c.167 0 .329-.06.456-.17l6.209-5.368V11.9c0 .131-.152.246-.325.246zM9 7.093L2.962 1.855h12.076L9 7.093z"/></symbol><symbol id="icon-phone"><path opacity=".3" d="M3.432 11.3A18.036 18.036 0 0 0 9.431 16c.877.415 2.05.908 3.357.993.081.004.159.007.24.007.877 0 1.581-.303 2.155-.926a.094.094 0 0 0 .014-.018c.205-.247.437-.469.68-.705.166-.158.335-.324.497-.493.75-.782.75-1.775-.007-2.533L14.25 10.21c-.36-.374-.79-.571-1.24-.571-.451 0-.884.197-1.254.567l-1.261 1.261a6.2 6.2 0 0 0-.349-.183 4.336 4.336 0 0 1-.387-.211c-1.149-.73-2.192-1.68-3.188-2.903-.504-.638-.842-1.173-1.078-1.72.33-.299.64-.612.94-.919.106-.109.215-.218.324-.327.38-.38.585-.82.585-1.268 0-.448-.2-.888-.585-1.268l-1.05-1.05c-.123-.123-.239-.243-.359-.366-.232-.24-.475-.487-.715-.709C4.27.187 3.844 0 3.393 0c-.447 0-.877.187-1.254.546L.822 1.863c-.48.48-.75 1.06-.807 1.734-.067.841.088 1.736.49 2.818C1.12 8.088 2.05 9.64 3.432 11.3zM.875 3.67c.042-.468.221-.859.56-1.197l1.31-1.31c.204-.198.43-.3.648-.3.215 0 .433.102.634.306.236.219.458.448.698.69l.366.374 1.05 1.05c.218.218.331.44.331.659 0 .218-.113.44-.331.659-.11.109-.219.221-.328.33-.327.332-.634.645-.972.945l-.018.017c-.292.293-.246.57-.176.782l.01.028c.272.652.649 1.272 1.237 2.012 1.057 1.303 2.17 2.314 3.396 3.093.152.098.314.176.465.253.14.07.271.138.387.212.015.007.025.014.04.02.115.06.228.089.34.089.283 0 .466-.18.526-.24l1.317-1.317c.205-.204.426-.314.645-.314.268 0 .486.166.623.314l2.125 2.12c.422.423.419.881-.011 1.329-.148.158-.303.31-.469.468-.246.24-.503.486-.736.764-.405.437-.887.642-1.511.642a2.8 2.8 0 0 1-.183-.008c-1.156-.073-2.23-.524-3.037-.908a17.134 17.134 0 0 1-5.71-4.474C2.787 9.176 1.903 7.704 1.318 6.126.956 5.157.818 4.379.875 3.67z"/></symbol></svg>
